packages/assets/static/images/icons/vimeo-logo.svg

<svg width="24" height="24" viewBox="0 0 24 24" xmlns="http://www.w3.org/2000/svg">
<path d="M11.0303 21.6261C10.8299 21.6261 10.6321 21.6092 10.4353 21.5745C8.91696 21.3055 7.81288 20.0324 7.15347 17.7908L5.22088 11.0042C4.97036 10.1595 4.71179 9.99267 4.61247 9.96079C4.49527 9.92329 4.13022 9.91298 3.2525 10.6377C3.10577 10.7652 2.91519 10.8289 2.72283 10.812C2.2531 10.7699 2.06253 10.4267 1.25907 8.98204C1.14186 8.77204 0.999603 8.51611 0.936078 8.41111C0.927131 8.40173 0.919078 8.39142 0.911026 8.38111C0.661399 8.06048 0.70703 7.58798 1.01302 7.32548C1.24833 7.12392 1.5257 6.87548 1.81916 6.61298C3.96022 4.69486 6.89311 2.06798 9.18359 2.93704C10.3244 3.37017 11.067 4.59361 11.3918 6.57361L12.8564 13.3208C12.8985 13.4295 12.9298 13.542 12.9593 13.6536C13.2617 13.1783 13.778 12.3355 14.2361 11.4308C15.4395 9.05236 15.1245 8.48704 15.1209 8.48236C15.1191 8.47954 14.8606 8.27048 13.7413 8.64829C13.4881 8.73361 13.2098 8.66517 13.0201 8.46923C12.8305 8.27329 12.7598 7.98361 12.8367 7.71642C13.5471 5.26579 14.976 3.52298 16.8603 2.80954C18.5951 2.10923 20.5268 2.26111 21.7839 3.19673C22.4809 3.71611 23.2996 4.71079 23.2477 6.50329C23.3148 9.85017 21.2703 12.628 19.4675 15.0805L19.3887 15.1874C18.8823 15.9074 14.7416 21.6261 11.033 21.627L11.0303 21.6261ZM4.51495 8.44579C4.68763 8.44579 4.86121 8.47111 5.03478 8.52736C5.74161 8.75704 6.2507 9.42361 6.5898 10.5674L8.52239 17.3558C9.00733 19.0049 9.73205 19.9292 10.6733 20.0961C10.7905 20.1167 10.9104 20.127 11.0339 20.127C13.3047 20.127 16.5364 16.7145 18.2381 14.292C18.2417 14.2874 18.2444 14.2836 18.248 14.2789L18.3321 14.1655C19.9945 11.9052 21.8787 9.34392 21.8152 6.51829C21.8152 6.50423 21.8152 6.48923 21.8152 6.47517C21.8447 5.56017 21.5557 4.86923 20.9536 4.42111C20.0893 3.77704 18.6479 3.69361 17.3676 4.21298C17.3622 4.21486 17.3568 4.21767 17.3515 4.21954C15.9834 4.73517 15.1549 5.88736 14.6655 6.92798C14.7863 6.92142 14.9008 6.92236 15.0109 6.93079C15.7052 6.98236 16.081 7.32173 16.2742 7.59736C16.8782 8.46079 16.6303 9.90642 15.494 12.148C14.7532 13.6086 13.9023 14.8705 13.8665 14.923C13.8173 14.9952 13.7565 15.058 13.6867 15.1077C13.2411 15.4274 12.8224 15.5155 12.443 15.3692C11.8651 15.147 11.704 14.5302 11.5966 14.1214C11.5752 14.0399 11.543 13.9161 11.5251 13.8767C11.5027 13.827 11.4857 13.7755 11.4741 13.722L9.99062 6.88767C9.98794 6.87454 9.98526 6.86048 9.98257 6.84642C9.75263 5.42611 9.31959 4.58517 8.69507 4.34892C7.18837 3.77704 4.30022 6.36454 2.74878 7.75392C2.63067 7.85986 2.51525 7.96298 2.40342 8.06236C2.43205 8.11392 2.46247 8.16829 2.49468 8.22642C2.60652 8.42798 2.78546 8.74861 2.94472 9.02236C3.41176 8.70923 3.95575 8.44579 4.51495 8.44579Z"/>
</svg>

<svg viewBox="0 0 24 24" xmlns="http://www.w3.org/2000/svg" aria-hidden="true" fill="currentColor"><path d="M11.03 21.626q-.3 0-.595-.052c-1.518-.269-2.622-1.542-3.282-3.783l-1.932-6.787c-.25-.844-.51-1.011-.609-1.043-.117-.038-.482-.048-1.36.677a.7.7 0 0 1-.53.174c-.469-.042-.66-.385-1.463-1.83-.117-.21-.26-.466-.323-.57l-.025-.03a.776.776 0 0 1 .102-1.057c.235-.201.513-.45.806-.712C3.96 4.695 6.893 2.068 9.184 2.937c1.14.433 1.883 1.657 2.208 3.637l1.464 6.747c.043.109.074.221.103.333.303-.476.819-1.319 1.277-2.223 1.204-2.379.888-2.944.885-2.949-.002-.002-.26-.212-1.38.166a.69.69 0 0 1-.72-.179.78.78 0 0 1-.184-.753c.71-2.45 2.139-4.193 4.023-4.906 1.735-.7 3.667-.549 4.924.387.697.52 1.516 1.514 1.464 3.306.067 3.347-1.978 6.125-3.78 8.578l-.08.106c-.506.72-4.646 6.44-8.355 6.44zM4.515 8.446q.26-.002.52.081c.707.23 1.216.897 1.555 2.04l1.932 6.789c.485 1.649 1.21 2.573 2.151 2.74q.176.03.36.031c2.272 0 5.503-3.412 7.205-5.835l.01-.013.084-.114c1.662-2.26 3.547-4.821 3.483-7.647v-.043c.03-.915-.26-1.606-.861-2.054-.865-.644-2.306-.727-3.586-.208l-.016.007c-1.369.515-2.197 1.667-2.687 2.708a3 3 0 0 1 .346.003c.694.051 1.07.39 1.263.666.604.864.356 2.31-.78 4.551a29 29 0 0 1-1.627 2.775.7.7 0 0 1-.18.185c-.446.32-.865.407-1.244.261-.578-.222-.739-.839-.846-1.248-.022-.081-.054-.205-.072-.244a1 1 0 0 1-.05-.155L9.99 6.888l-.008-.042c-.23-1.42-.663-2.26-1.288-2.497C7.188 3.777 4.3 6.365 2.75 7.754l-.346.308.092.164c.112.202.29.523.45.796.467-.313 1.01-.576 1.57-.576"/></svg>
